X:421
T:
N:
S:Efter »Florsen» i Burs.
R:vals
O:Gotland, Burs
M:3/4
L:1/8
K:G
g2|d6|c2 B2 A2|G4 B2|D2 G2 B2|B4 A2|D2 F2 A2|e4 dc|B4 g2|d6|c2 B2 A2|
G4 B2|D2 G2 B2|B4 A2|c2 E2 F2|G4 BA|1G4:|2 G6|:A4 AF|D2 F2 A2|e4 dc|
B4 B2|A4 AF|D2 F2 A2|e4 d2|B4 g2|d6|c2 B2 A2|G4 B2|D2 G2 B2|B4 A2|
c2 E2 F2|G4 BA|G4 z2::(dc)(Bc) A2|(AG)(FE) D2|(GD)(GB) d2|
(BG)(Bd) g2|e2 cccc|d2 BBBB|B2 (AG)(AB)|G6:|

